source/img/main/icon-university.svg

<svg width="48" height="33" viewBox="0 0 48 33" fill="none" xmlns="http://www.w3.org/2000/svg">
<path d="M46.8009 4.26422H44.2339V0.22168C42.2781 2.20908 34.8145 2.92895 31.1583 3.17121C26.1486 3.50302 24.6821 5.43301 24.6821 5.43301C24.6821 8.65694 24.6821 28.5631 24.6821 28.5631C27.6152 28.5631 35.6939 28.1555 38.369 27.2382C42.6453 25.772 44.2339 23.7054 44.2339 23.7054V6.25047H45.6991V29.3232H2.19981V6.25047H3.66508V23.7054C3.66508 23.7054 5.25362 25.772 9.52997 27.2382C12.2051 28.1555 20.2838 28.5631 23.2168 28.5631C23.2168 28.5631 23.2168 8.65809 23.2168 5.43301C23.2168 5.43301 21.7516 3.50187 16.7407 3.17121C13.0845 2.92895 5.62089 2.20908 3.66508 0.22168V4.26422H1.10054C0.491812 4.26422 0 4.70969 0 5.25735V31.0901C0 31.6389 0.493083 32.0844 1.10054 32.0844H46.8022C47.4097 32.0844 47.9015 31.6389 47.9015 31.0901V5.25735C47.9015 4.70855 47.4084 4.26422 46.8009 4.26422ZM41.6935 20.765C41.5956 20.7995 39.2268 21.6307 33.5843 22.3506C29.4287 22.881 28.243 24.1451 28.2036 24.1888C28.0613 24.3621 27.8401 24.4551 27.6165 24.4551C27.4678 24.4551 27.3191 24.4149 27.1895 24.3311C26.8603 24.1176 26.7841 23.7042 27.0204 23.4069C27.1602 23.2289 28.5327 21.6583 33.3797 21.0383C38.815 20.3448 41.1343 19.54 41.1559 19.532C41.5321 19.3988 41.9591 19.5664 42.1065 19.9063C42.2539 20.2461 42.0696 20.6307 41.6935 20.765ZM41.6935 15.8006C41.5956 15.835 39.2268 16.6651 33.5843 17.3861C29.4287 17.9166 28.243 19.1806 28.2036 19.2243C28.0613 19.3976 27.8401 19.4906 27.6165 19.4906C27.4678 19.4906 27.3191 19.4504 27.1895 19.3666C26.8603 19.1531 26.7841 18.7398 27.0204 18.4424C27.1602 18.2656 28.5327 16.6938 33.3797 16.075C38.815 15.3815 41.1343 14.5767 41.1559 14.5686C41.5321 14.4343 41.9591 14.6031 42.1065 14.9441C42.2539 15.2828 42.0696 15.6662 41.6935 15.8006ZM41.6935 10.8372C41.5956 10.8717 39.2268 11.7018 33.5843 12.4228C29.4287 12.9532 28.243 14.2173 28.2036 14.2609C28.0613 14.4343 27.8401 14.5273 27.6165 14.5273C27.4678 14.5273 27.3191 14.4871 27.1895 14.4033C26.8603 14.1897 26.7841 13.7764 27.0204 13.4791C27.1602 13.3022 28.5327 11.7305 33.3797 11.1116C38.815 10.4182 41.1343 9.61333 41.1559 9.60529C41.5321 9.47211 41.9591 9.63973 42.1065 9.97958C42.2539 10.3194 42.0696 10.7029 41.6935 10.8372ZM41.6935 5.87274C41.5956 5.90833 39.2268 6.73843 33.5843 7.4583C29.4287 7.98873 28.243 9.25167 28.2036 9.29644C28.0613 9.46981 27.8401 9.56166 27.6165 9.56166C27.4678 9.56166 27.3191 9.52148 27.1895 9.43766C26.8603 9.22526 26.7841 8.81079 27.0204 8.51343C27.1602 8.33547 28.5327 6.76483 33.3797 6.146C38.815 5.45138 41.1343 4.6477 41.1559 4.63966C41.5321 4.50648 41.9591 4.6741 42.1065 5.01395C42.2539 5.35494 42.0696 5.73956 41.6935 5.87274ZM5.795 5.01509C5.94241 4.67525 6.36814 4.50762 6.74431 4.64081C6.76718 4.64884 9.08518 5.45253 14.5218 6.14714C19.3675 6.76598 20.74 8.33661 20.881 8.51457C21.1174 8.81194 21.0412 9.22641 20.7108 9.43881C20.5811 9.52263 20.4324 9.56281 20.285 9.56281C20.0601 9.56281 19.839 9.47096 19.6966 9.29759C19.6572 9.25282 18.4715 7.99103 14.3159 7.45945C8.6747 6.73957 6.3046 5.90833 6.20675 5.87389C5.83058 5.73956 5.64631 5.35494 5.795 5.01509ZM5.795 9.97958C5.94241 9.63973 6.36814 9.47211 6.74431 9.60529C6.76718 9.61333 9.08518 10.4182 14.5218 11.1116C19.3675 11.7305 20.74 13.3022 20.881 13.4791C21.1174 13.7764 21.0412 14.1909 20.7108 14.4033C20.5811 14.4871 20.4324 14.5273 20.285 14.5273C20.0601 14.5273 19.839 14.4343 19.6966 14.2609C19.6572 14.2173 18.4715 12.9532 14.3159 12.4228C8.6747 11.7029 6.3046 10.8717 6.20675 10.8372C5.83058 10.7029 5.64631 10.3194 5.795 9.97958ZM5.795 14.9429C5.94241 14.6019 6.36814 14.4343 6.74431 14.5675C6.76718 14.5755 9.08518 15.3804 14.5218 16.0738C19.3675 16.6927 20.74 18.2644 20.881 18.4412C21.1174 18.7386 21.0412 19.1531 20.7108 19.3655C20.5811 19.4493 20.4324 19.4895 20.285 19.4895C20.0601 19.4895 19.839 19.3965 19.6966 19.2231C19.6572 19.1795 18.4715 17.9166 14.3159 17.385C8.6747 16.6651 6.3046 15.8339 6.20675 15.7994C5.83058 15.6662 5.64631 15.2828 5.795 14.9429ZM5.795 19.9063C5.94241 19.5664 6.36814 19.3988 6.74431 19.532C6.76718 19.54 9.08518 20.3448 14.5218 21.0383C19.3675 21.6571 20.74 23.2289 20.881 23.4069C21.1174 23.7042 21.0412 24.1176 20.7108 24.3311C20.5811 24.4149 20.4324 24.4551 20.285 24.4551C20.0601 24.4551 19.839 24.3621 19.6966 24.1888C19.6572 24.1451 18.4715 22.8822 14.3159 22.3506C8.6747 21.6307 6.3046 20.7995 6.20675 20.765C5.83058 20.6307 5.64631 20.2461 5.795 19.9063Z" fill="white"/>
</svg>

<svg width="48" viewBox="0 0 48 33" height="33" fill="none" xmlns="http://www.w3.org/2000/svg"><path d="M46.8 4.264h-2.566V.222c-1.956 1.987-9.42 2.707-13.076 2.95-5.01.331-6.476 2.261-6.476 2.261v23.13c2.933 0 11.012-.407 13.687-1.325 4.276-1.466 5.865-3.533 5.865-3.533V6.25h1.465v23.073H2.2V6.25h1.466v17.455s1.589 2.067 5.865 3.533c2.675.918 10.754 1.325 13.687 1.325V5.433s-1.465-1.931-6.476-2.262C13.085 2.93 5.62 2.21 3.665.221v4.043H1.101C.49 4.264 0 4.71 0 5.257V31.09c0 .549.493.994 1.1.994h45.702c.608 0 1.1-.445 1.1-.994V5.257c0-.548-.494-.993-1.101-.993zm-5.106 16.501c-.098.034-2.467.866-8.11 1.586-4.155.53-5.341 1.794-5.38 1.838a.76.76 0 01-.588.266.784.784 0 01-.427-.124c-.329-.213-.405-.627-.169-.924.14-.178 1.513-1.749 6.36-2.369 5.435-.693 7.754-1.498 7.776-1.506.376-.133.803.034.95.374.148.34-.036.725-.413.859zm0-4.964c-.098.034-2.467.864-8.11 1.585-4.155.53-5.341 1.795-5.38 1.838a.76.76 0 01-.588.267.784.784 0 01-.427-.124c-.329-.214-.405-.627-.169-.925.14-.176 1.513-1.748 6.36-2.367 5.435-.693 7.754-1.498 7.776-1.506.376-.135.803.034.95.375.148.339-.036.722-.413.857zm0-4.964c-.098.035-2.467.865-8.11 1.586-4.155.53-5.341 1.794-5.38 1.838a.76.76 0 01-.588.266.784.784 0 01-.427-.124c-.329-.213-.405-.627-.169-.924.14-.177 1.513-1.748 6.36-2.367 5.435-.694 7.754-1.499 7.776-1.507.376-.133.803.035.95.375.148.34-.036.723-.413.857zm0-4.964c-.098.035-2.467.865-8.11 1.585-4.155.53-5.341 1.794-5.38 1.838a.758.758 0 01-.588.266.784.784 0 01-.427-.124c-.329-.213-.405-.627-.169-.925.14-.178 1.513-1.748 6.36-2.367 5.435-.695 7.754-1.498 7.776-1.506.376-.134.803.034.95.374.148.34-.036.726-.413.859zm-35.9-.858c.147-.34.573-.507.95-.374.022.008 2.34.812 7.777 1.506 4.845.619 6.218 2.19 6.359 2.368.236.297.16.711-.17.924a.783.783 0 01-.426.124.76.76 0 01-.588-.265c-.04-.045-1.226-1.307-5.381-1.839-5.641-.72-8.011-1.55-8.11-1.585-.375-.134-.56-.52-.411-.859zm0 4.965c.147-.34.573-.508.95-.375.022.008 2.34.813 7.777 1.507 4.845.618 6.218 2.19 6.359 2.367.236.297.16.712-.17.924a.784.784 0 01-.426.124.76.76 0 01-.588-.266c-.04-.044-1.226-1.308-5.381-1.838-5.641-.72-8.011-1.551-8.11-1.586-.375-.134-.56-.518-.411-.857zm0 4.963c.147-.341.573-.509.95-.375.022.008 2.34.812 7.777 1.506 4.845.619 6.218 2.19 6.359 2.367.236.298.16.712-.17.925a.784.784 0 01-.426.123.76.76 0 01-.588-.266c-.04-.043-1.226-1.306-5.381-1.838-5.641-.72-8.011-1.551-8.11-1.586-.375-.133-.56-.516-.411-.856zm0 4.963c.147-.34.573-.507.95-.374.022.008 2.34.813 7.777 1.506 4.845.62 6.218 2.19 6.359 2.369.236.297.16.71-.17.924a.784.784 0 01-.426.124.76.76 0 01-.588-.266c-.04-.044-1.226-1.307-5.381-1.838-5.641-.72-8.011-1.552-8.11-1.586-.375-.134-.56-.519-.411-.859z" fill="#fff"/></svg>
